assets/svg/docs/server.svg

<?xml version="1.0" encoding="UTF-8"?>
<svg width="16px" height="18px" viewBox="0 0 16 18" version="1.1" xmlns="http://www.w3.org/2000/svg" xmlns:xlink="http://www.w3.org/1999/xlink">
    <title>server</title>
    <g id="Page-1" stroke="none" stroke-width="1" fill="none" fill-rule="evenodd">
        <g id="server" fill-rule="nonzero">
            <path d="M16,6 L16,10 L0,10 L0,6 L16,6 Z M14,0 C15.1045695,0 16,0.8954305 16,2 L16,4 L0,4 L0,2 C0,0.9 0.9,0 2,0 L14,0 Z" id="Shape" fill="#FFFFFF"></path>
            <path d="M16,12 L16,16 C16,17 15.2,18 14.1,18 L2,18 C1,18 0,17.2 0,16.1 L0,12 L16,12 Z M10,14 C9.44771525,14 9,14.4477153 9,15 C9,15.5522847 9.44771525,16 10,16 C10.5522847,16 11,15.5522847 11,15 C11,14.4477153 10.5522847,14 10,14 Z M13,14 C12.4477153,14 12,14.4477153 12,15 C12,15.5522847 12.4477153,16 13,16 C13.5522847,16 14,15.5522847 14,15 C14,14.4477153 13.5522847,14 13,14 Z" id="Path-2" fill="#FE52FF"></path>
        </g>
    </g>
</svg>

<svg xmlns="http://www.w3.org/2000/svg" viewBox="0 0 16 18"><g fill="none"><path fill="#FFF" d="M16 6v4H0V6h16Zm-2-6a2 2 0 0 1 2 2v2H0V2C0 .9.9 0 2 0h12Z"/><path fill="#FE52FF" d="M16 12v4c0 1-.8 2-1.9 2H2c-1 0-2-.8-2-1.9V12h16Zm-6 2a1 1 0 1 0 0 2 1 1 0 0 0 0-2Zm3 0a1 1 0 1 0 0 2 1 1 0 0 0 0-2Z"/></g></svg>
